X:1
T:Who Will Send or Go?
T:Who Will Send or Go?
T:George Frederick Root
T:Mary Bridges Canedy Slade, 1867
T:Public Domain Courtesy of the Cyber Hymnal™
T:Public Domain Courtesy of the Cyber Hymnal™
C:George Frederick Root
Z:Public Domain
Z:Courtesy of the Cyber Hymnal™
%%score ( 1 2 ) 3
L:1/8
Q:1/4=85
M:4/4
K:Eb
V:1 treble 
V:2 treble 
V:3 bass 
V:1
 [B,E] | [B,E][B,E][B,E][B,E] [B,E][B,E] z [B,E] | [B,E]>[B,D] [B,E][B,F] [B,G]2 z [EG] | %3
w: 1.~I|wan- dered just at ev- en, Be-|side the sound- ing sea; The|
w: 2.~The|north wind told its sto- ry, With|one swift an- gry blast, Of|
w: 3.~The|south wind said, “I’m tell- ing Of|po- lar south- ern night; When|
w: 4.~The|even- ing winds passed o’er me, The|an- gry north- ern blast, A-|
 [EA][EA][EA][EA] [EA][EA] z [EA] | [EA][EG] [GB]>[EG] [DF]2 z [DF] | %5
w: whis- pering winds of Hea- ven Their|sto- ry told to me; The|
w: In- dian off- erings go- ry, It|saw, in rush- ing past; Where|
w: an- gry surg- es swell- ing, The|dark- ened souls a- fright; I|
w: cross the sea be- fore me, Went|has- ting, far and fast; The|
 [DF][DF][DF][DF] [DF][DF] z [DF] | [DF]>[CE] [DF][EG] [EA]2 z [EB] | %7
w: east wind said, “I’m has- ting From|tro- pic Gan- ges’ wave; Where|
w: far off north- ern na- tions In|for- ests dark and deep, With|
w: saw no off- ering burn- ing; No|in- cense filled the air; No|
w: ze- phyrs ceased their wail- ing, And|in my heart, I heard, This|
 [Ec][Ec][Ec][Ec] [Ec] [EB]2 [EG] | [DF]>E [DF][DG] E2 z ||"^Refrain" [CE] | %10
w: child- ren they were cast- ing With-|in a wat- ery grave.”||
w: fear- ful in- can- ta- tions Their|hea- then vi- gils keep.||
w: souls to God were turn- ing; No|gods they wor- ship there!”||
w: prom- ise, ne- ver fail- ing, “The|earth shall know the Lord!”||
 [CE]2 [CE]2 [CE][CE] z2 | [CE]>[CE] [CE][A,C] [CE]2 z [B,E] | [DF]2 [DF]2 [EG][EG] z | %13
w: |||
w: |||
w: |||
w: |||
 [GB]>[EG] [DF][DG] E2 z |] %14
w: |
w: |
w: |
w: |
V:2
 x | x8 | x8 | x8 | x8 | x8 | x8 | x8 | x3/2 E/ x3/2 E2 x3/2 || x | x8 | x8 | x7 | x4 E2 x |] %14
V:3
 [E,G,] | [E,G,][E,G,][E,G,][E,G,] [E,A,][E,G,] z [E,B,] | %2
w: ~|~ ~ ~ ~ ~ ~ ~|
 [E,G,]>[E,F,] [E,G,][E,A,] [E,B,]2 z [E,B,] | [E,C][E,C][E,C][E,C] [E,C][E,C] z [E,C] | %4
w: ~ ~ ~ ~ ~ ~|~ ~ ~ ~ ~ ~ ~|
 [E,C][E,B,] [E,B,]>[E,B,] [B,,B,]2 z [B,,B,] | %5
w: ~ ~ ~ ~ ~ ~|
 [B,,B,][B,,B,][B,,B,][B,,B,] [B,,B,][B,,B,] z [B,,B,] | %6
w: ~ ~ ~ ~ ~ ~ ~|
 [B,,B,]>[B,,B,] [B,,B,][E,B,] [A,,C]2 z [G,,B,] | %7
w: ~ ~ ~ ~ ~ ~|
 [A,,A,][A,,A,][A,,A,][A,,A,] [E,A,] [E,G,]2 [E,B,] | [B,,B,]>[B,,G,] [B,,A,][B,,B,] [E,G,]2 z || %9
w: ~ ~ ~ ~ ~ ~ ~|~ ~ ~ ~ ~|
 [A,,A,] | [A,,A,]2 [A,,A,]2 [A,,A,][A,,A,] z2 | [A,,A,]>[A,,A,] [A,,A,][A,,E,] [A,,E,]2 z [E,G,] | %12
w: A|soft wind whis- pered,|“Who will send or go, To|
 [B,,B,]2 [B,,B,]2 [E,B,][E,B,] z | [B,,B,]>[B,,B,] [B,,B,][B,,B,] [E,G,]2 z |] %14
w: teach the hea- then|Je- sus’ love to know?”|

